packages/icons/src/delete-left-fill.svg

<svg xmlns="http://www.w3.org/2000/svg" width="24" height="24" fill="none" viewBox="0 0 24 24">
  <path fill="#000" d="M7.95 19 3 12l4.95-7H21v14H7.95Zm3.45-3 2.6-2.6 2.6 2.6 1.4-1.4-2.6-2.6L18 9.4 16.6 8 14 10.6 11.4 8 10 9.4l2.6 2.6-2.6 2.6 1.4 1.4Z"/>
</svg>

<svg width="24" height="24" viewBox="0 0 24 24" fill="none" xmlns="http://www.w3.org/2000/svg">
<path d="M7.95 19L3 12L7.95 5H21V19H7.95ZM11.4 16L14 13.4L16.6 16L18 14.6L15.4 12L18 9.4L16.6 8L14 10.6L11.4 8L10 9.4L12.6 12L10 14.6L11.4 16Z" fill="black"/>
</svg>
